packages/appstore/src/assets/svgs/wallet/ic-appstore-derivgo-black.svg

<svg width="33" height="33" viewBox="0 0 27 26" fill="none" xmlns="http://www.w3.org/2000/svg">
<g clip-path="url(#clip0_27439_122695)">
<path d="M0.840027 4.90001C0.840027 2.25201 2.99203 0.100006 5.64003 0.100006H21.64C24.288 0.100006 26.44 2.25201 26.44 4.90001V20.9C26.44 23.548 24.288 25.7 21.64 25.7H5.64003C2.99203 25.7 0.840027 23.548 0.840027 20.9V4.90001Z" fill="url(#paint0_linear_27439_122695)"/>
<path d="M5.6169 9.70001L8.0649 12.9L4.1369 16.1H8.1049C9.2649 16.1 10.2649 15.3 10.5289 14.172L10.8569 12.748C11.1689 11.412 10.3369 10.076 8.9929 9.76401C8.8089 9.72401 8.6169 9.70001 8.4329 9.70001H5.6089H5.6169Z" fill="url(#paint1_linear_27439_122695)"/>
<path d="M8.0649 12.9L6.3209 16.1H4.1369L8.0649 12.9Z" fill="#CC2E3D"/>
<path d="M22.9758 11.2842C22.7358 10.6442 22.2398 10.1402 21.5998 9.8922C21.2478 9.7562 20.8798 9.6922 20.5038 9.6922C20.1998 9.6922 19.8958 9.7322 19.5998 9.8202C19.3198 9.9002 19.0478 10.0282 18.7998 10.1882C18.5518 10.3482 18.3278 10.5402 18.1278 10.7642C17.9278 10.9962 17.7518 11.2442 17.6158 11.5242C17.4718 11.8122 17.3678 12.1162 17.2958 12.4282C17.2878 12.4682 17.2798 12.5002 17.2718 12.5402H14.2638L13.9918 13.8282H15.3598C15.3198 13.8922 15.2798 13.9482 15.2398 14.0042C15.0958 14.1882 14.9198 14.3482 14.7198 14.4602C14.5278 14.5642 14.3118 14.6202 14.0958 14.6202C13.9438 14.6202 13.7918 14.5962 13.6478 14.5322C13.5198 14.4762 13.4078 14.3962 13.3118 14.2922C13.2158 14.1802 13.1358 14.0442 13.0878 13.9002C13.0318 13.7322 13.0078 13.5562 13.0078 13.3722C13.0078 13.0682 13.0478 12.7722 13.1438 12.4842C13.2238 12.2282 13.3438 11.9882 13.5038 11.7802C13.6478 11.5962 13.8238 11.4362 14.0238 11.3242C14.2158 11.2202 14.4318 11.1642 14.6478 11.1642C14.7998 11.1642 14.9518 11.1882 15.0878 11.2522C15.2158 11.3082 15.3278 11.3882 15.4238 11.4922C15.5198 11.6042 15.5998 11.7402 15.6478 11.8842L17.1678 11.2842C16.9278 10.6442 16.4318 10.1402 15.7998 9.9002C15.4478 9.7642 15.0798 9.7002 14.7038 9.7002C14.3998 9.7002 14.0958 9.7402 13.7998 9.8282C13.5198 9.9082 13.2478 10.0362 12.9998 10.1962C12.7518 10.3562 12.5278 10.5482 12.3278 10.7722C12.1278 11.0042 11.9518 11.2522 11.8158 11.5322C11.6718 11.8202 11.5678 12.1242 11.4958 12.4442C11.4158 12.7882 11.3838 13.1322 11.3838 13.4842C11.3838 13.8362 11.4478 14.1882 11.5758 14.5162C11.6958 14.8282 11.8798 15.1162 12.1198 15.3562C12.3598 15.5962 12.6478 15.7802 12.9598 15.9082C13.3038 16.0442 13.6798 16.1082 14.0478 16.1082C14.3518 16.1082 14.6558 16.0682 14.9518 15.9802C15.5198 15.8122 16.0318 15.4922 16.4158 15.0442C16.6158 14.8122 16.7918 14.5642 16.9278 14.2922C17.0398 14.0762 17.1278 13.8522 17.1918 13.6122C17.1998 13.9242 17.2638 14.2282 17.3758 14.5242C17.4958 14.8362 17.6798 15.1242 17.9198 15.3642C18.1598 15.6042 18.4478 15.7882 18.7598 15.9162C19.1038 16.0522 19.4798 16.1162 19.8478 16.1162C20.1518 16.1162 20.4558 16.0762 20.7518 15.9882C21.3198 15.8202 21.8318 15.5002 22.2158 15.0522C22.4158 14.8202 22.5918 14.5722 22.7278 14.3002C22.8718 14.0122 22.9758 13.7002 23.0478 13.3882C23.1198 13.0442 23.1598 12.7002 23.1598 12.3482C23.1598 11.9962 23.0958 11.6442 22.9758 11.3162V11.2842ZM21.4078 13.3082C21.3278 13.5642 21.2078 13.7962 21.0478 14.0122C20.9038 14.1962 20.7278 14.3562 20.5278 14.4682C20.3358 14.5722 20.1198 14.6282 19.9038 14.6282C19.7518 14.6282 19.5998 14.6042 19.4558 14.5402C19.3278 14.4842 19.2158 14.4042 19.1198 14.3002C19.0238 14.1882 18.9438 14.0522 18.8958 13.9082C18.8398 13.7402 18.8158 13.5642 18.8158 13.3802C18.8158 13.0762 18.8558 12.7802 18.9518 12.4922C19.0318 12.2362 19.1518 11.9962 19.3118 11.7882C19.4558 11.6042 19.6318 11.4442 19.8398 11.3322C20.0318 11.2282 20.2478 11.1722 20.4638 11.1722C20.6158 11.1722 20.7678 11.1962 20.9038 11.2602C21.0318 11.3162 21.1438 11.3962 21.2398 11.5002C21.3358 11.6122 21.4158 11.7482 21.4638 11.8922C21.5198 12.0602 21.5438 12.2362 21.5438 12.4202C21.5438 12.7242 21.5038 13.0282 21.4078 13.3162V13.3082Z" fill="white"/>
</g>
<defs>
<linearGradient id="paint0_linear_27439_122695" x1="13.64" y1="25.7" x2="13.64" y2="0.100006" gradientUnits="userSpaceOnUse">
<stop/>
<stop offset="1" stop-color="#58595B"/>
</linearGradient>
<linearGradient id="paint1_linear_27439_122695" x1="8.4249" y1="8.59601" x2="7.1529" y2="16.636" gradientUnits="userSpaceOnUse">
<stop stop-color="#FF6444"/>
<stop offset="1" stop-color="#FF444F"/>
</linearGradient>
<clipPath id="clip0_27439_122695">
<rect width="25.6" height="25.6" fill="white" transform="translate(0.840027 0.100006)"/>
</clipPath>
</defs>
</svg>

<svg width="33" height="33" viewBox="0 0 27 26" fill="none" xmlns="http://www.w3.org/2000/svg"><g clip-path="url(#prefix__clip0_27439_122695)"><path d="M.84 4.9C.84 2.252 2.992.1 5.64.1h16c2.648 0 4.8 2.152 4.8 4.8v16c0 2.648-2.152 4.8-4.8 4.8h-16a4.804 4.804 0 01-4.8-4.8v-16z" fill="url(#prefix__paint0_linear_27439_122695)"/><path d="M5.617 9.7l2.448 3.2-3.928 3.2h3.968c1.16 0 2.16-.8 2.424-1.928l.328-1.424A2.484 2.484 0 008.433 9.7H5.609h.008z" fill="url(#prefix__paint1_linear_27439_122695)"/><path d="M8.065 12.9L6.32 16.1H4.137l3.928-3.2z" fill="#CC2E3D"/><path d="M22.976 11.284A2.385 2.385 0 0021.6 9.892c-.352-.136-.72-.2-1.096-.2-.304 0-.608.04-.904.128a3.02 3.02 0 00-.8.368c-.248.16-.472.352-.672.576-.2.232-.376.48-.512.76a4.054 4.054 0 00-.32.904l-.024.112h-3.008l-.272 1.288h1.368c-.04.064-.08.12-.12.176-.144.184-.32.344-.52.456-.192.104-.408.16-.624.16-.152 0-.304-.024-.448-.088a.996.996 0 01-.336-.24 1.191 1.191 0 01-.224-.392 1.656 1.656 0 01-.08-.528c0-.304.04-.6.136-.888.08-.256.2-.496.36-.704.144-.184.32-.344.52-.456.192-.104.408-.16.624-.16a1.03 1.03 0 01.776.328c.096.112.176.248.224.392l1.52-.6A2.36 2.36 0 0015.8 9.9c-.352-.136-.72-.2-1.096-.2-.304 0-.608.04-.904.128a3.02 3.02 0 00-.8.368c-.248.16-.472.352-.672.576-.2.232-.376.48-.512.76a3.98 3.98 0 00-.32.912c-.08.344-.112.688-.112 1.04 0 .352.064.704.192 1.032.12.312.304.6.544.84.24.24.528.424.84.552a3.165 3.165 0 001.992.072 3.067 3.067 0 001.464-.936c.2-.232.376-.48.512-.752.112-.216.2-.44.264-.68.008.312.072.616.184.912.12.312.304.6.544.84.24.24.528.424.84.552a3.165 3.165 0 001.992.072 3.067 3.067 0 001.464-.936c.2-.232.376-.48.512-.752.144-.288.248-.6.32-.912.072-.344.112-.688.112-1.04 0-.352-.064-.704-.184-1.032v-.032zm-1.568 2.024c-.08.256-.2.488-.36.704-.144.184-.32.344-.52.456-.192.104-.408.16-.624.16-.152 0-.304-.024-.448-.088a.996.996 0 01-.336-.24 1.191 1.191 0 01-.224-.392 1.656 1.656 0 01-.08-.528c0-.304.04-.6.136-.888.08-.256.2-.496.36-.704.144-.184.32-.344.528-.456.192-.104.408-.16.624-.16a1.03 1.03 0 01.776.328c.096.112.176.248.224.392.056.168.08.344.08.528 0 .304-.04.608-.136.896v-.008z" fill="#fff"/></g><defs><linearGradient id="prefix__paint0_linear_27439_122695" x1="13.64" y1="25.7" x2="13.64" y2=".1" gradientUnits="userSpaceOnUse"><stop/><stop offset="1" stop-color="#58595B"/></linearGradient><linearGradient id="prefix__paint1_linear_27439_122695" x1="8.425" y1="8.596" x2="7.153" y2="16.636" gradientUnits="userSpaceOnUse"><stop stop-color="#FF6444"/><stop offset="1" stop-color="#FF444F"/></linearGradient><clipPath id="prefix__clip0_27439_122695"><path fill="#fff" transform="translate(.84 .1)" d="M0 0h25.6v25.6H0z"/></clipPath></defs></svg>
